X:656
T:The frost is all gone
R:Jig
O:Ireland
B:Roche 1 n107
B:Kerr's First p31
Z:Transcription, chords:Mike Long
M:6/8
L:1/8
K:D
A|\
"D"def edB|"D"AdF "A"(E2D)|"D"DFA AFA|"G"Bee "A"edB|\
"D"def edB|"D"AFD {F}"A"(E2D)|"D"DFA AFA|"G"Bdd "D"d2:|
|:g|\
"D"faa agf|"G"gbb bag|"D"faa agf|{a}"G"gfg "A"(e2g)|\
"D"faa agf|"G"gbb bag|"D"fed "A"eag|"D"fdd d2:|
